!!!OTL: Young Charlotte
!!!ONM: 150.
**kern
*clefG2
*k[b-e-]
*B-:
*M6/8
*MM80
{8B-
=1
4d
8d
8B-
8c
8d
=2
4f
8f
4d}
{16B-
16B-
=3
4d
8c
4B-
8A
=4
4.B-
4r}
{8f
=5
8b-
8b-
8g
4a
8cc
=6
4f
8g
(8f
8e-)}
{8c
=7
4d
8c
(8e-
8f)
8g
=8
4.f
4r}
{8a
=9
8b-
8b-
8g
4a
8cc
=10
4f
8g
8f
(8e-
8c)}
=11
{4c
8c
(8d
8f)
8g
=12
4.f
4r}
{8B-
=13
4d
8d
(8B-
8c)
8d
=14
8f
8f
8f
4d}
{8B-
=15
4d
8c
4B-
8A
=16
4.B-
4r}
==
*-
!!!CNT: Folksongs of Maritime Canada
!!!MRD: 1928///-1932///
!!!OCL: Helen Creighton
!!!YOR: Songs and Ballads from Nova Scotia
!!!PPR: J.M. Dent & Sons, Limited
!!!PPP: Toronto, Canada
!!!PDT: 1932///
!!!reprint: Dover Publications, 1992: ISBN 0-486-21703-5
!!!ENC1: Craig Stuart Sapp (music and bibliographic data)                       
!!!ENC2: Marcus Pearce (phrase markings and key designations)                   
!!!ENC3: Darrell Conklin (phrase markings and key designations)   
!!!END: 2002/04/10/
!!!EEV: 2004/06/05
!!!MPN: Mr. Ben Henneberry and Miss Aletha Edwards
!!!PPG: 328
!!!EFL: 152/152
!!!ARE: Canada; Nova Scotia
!!!verses: 22
!!!VTS: 4038415687
